X:92
T:
S:Upptecknad efter Teresia Pettersson, Myrungs i Linde.
M:3/4
L:1/8
K:D
D2|F3 E F G|A2 A2 d2|c3 E G F|E4 z2|
w:Hur of-ta sa-de mam-ma: »Ack hör, mitt sö-ta barn,
E3 ^D E F|G4 e2|d3 F A G|F4 z2|D3 E F G|
w:ak-ta dig att fal-la u-ti man-nens garn! Ak-ta dig att
A4 d2|c3 B d c|B4 C2|E3 F G B|A4 d2|
w:tro på man-nens fag-ra ord! Ty säl-lan nå-gon san-ning
c3 E G F|D4:|
w:bor ut-i hans ord.»
